public/img/ui/tests.svg

<svg fill="none" height="40" viewBox="0 0 40 40" width="40" xmlns="http://www.w3.org/2000/svg" xmlns:xlink="http://www.w3.org/1999/xlink"><clipPath id="a"><path d="m0 0h40v40h-40z"/></clipPath><g clip-path="url(#a)" stroke="#ff2d20" stroke-linecap="round" stroke-linejoin="round" stroke-width="2"><path d="m14.73 28.46c7.5829 0 13.73-6.1471 13.73-13.73 0-7.58287-6.1471-13.73-13.73-13.73-7.58287 0-13.73 6.14713-13.73 13.73 0 7.5829 6.14713 13.73 13.73 13.73z"/><path d="m14.7299 24.3002c5.2854 0 9.57-4.2847 9.57-9.57 0-5.28541-4.2846-9.57004-9.57-9.57004-5.28535 0-9.56999 4.28463-9.56999 9.57004 0 5.2853 4.28464 9.57 9.56999 9.57z"/><path d="m39.0001 35.7835-9.1429-9.1429-3.2174 3.2174 9.1429 9.1429z"/><path d="m29.1938 27.3186-3.8537-3.8538-1.8738 1.8739 3.8537 3.8537z"/><path d="m13.0601 10.4402v-.86004c0-.92.75-1.67 1.67-1.67s1.67.75 1.67 1.67v.86004"/><path d="m11.13 15.4102h-2.86999"/><path d="m11.52 18.0195-1.57005 1.56"/><path d="m11.52 12.7905-1.57005-1.56"/><path d="m18.3401 15.4102h2.86"/><path d="m17.95 18.0195 1.56 1.56"/><path d="m11.1201 16.39c0 1.9937 1.614 3.61 3.605 3.61s3.605-1.6163 3.605-3.61v-1.97c0-1.9937-1.614-3.61-3.605-3.61s-3.605 1.6163-3.605 3.61z"/><path d="m17.95 12.7905 1.56-1.56"/><path d="m18.3301 16.6484h-2.27"/><path d="m18.11 14.0898h-1.41"/><path d="m26.1801 20.7305h-.37"/><path d="m27.8399 17.2188h-.66"/><path d="m28.41 13.5117h-1.4"/></g></svg>

<svg width="40" height="40" viewBox="0 0 40 40" fill="none" xmlns="http://www.w3.org/2000/svg">
<g clip-path="url(#clip0_834_1189)">
<path d="M14.73 28.46C22.3129 28.46 28.46 22.3129 28.46 14.73C28.46 7.14713 22.3129 1 14.73 1C7.14713 1 1 7.14713 1 14.73C1 22.3129 7.14713 28.46 14.73 28.46Z" stroke="#FF2D20" stroke-width="2" stroke-linecap="round" stroke-linejoin="round"/>
<path d="M14.7299 24.3002C20.0153 24.3002 24.2999 20.0155 24.2999 14.7302C24.2999 9.44479 20.0153 5.16016 14.7299 5.16016C9.44455 5.16016 5.15991 9.44479 5.15991 14.7302C5.15991 20.0155 9.44455 24.3002 14.7299 24.3002Z" stroke="#FF2D20" stroke-width="2" stroke-linecap="round" stroke-linejoin="round"/>
<path d="M39.0001 35.7835L29.8572 26.6406L26.6398 29.858L35.7827 39.0009L39.0001 35.7835Z" stroke="#FF2D20" stroke-width="2" stroke-linecap="round" stroke-linejoin="round"/>
<path d="M29.1938 27.3186L25.3401 23.4648L23.4663 25.3387L27.32 29.1924L29.1938 27.3186Z" stroke="#FF2D20" stroke-width="2" stroke-linecap="round" stroke-linejoin="round"/>
<path d="M13.0601 10.4402V9.58016C13.0601 8.66016 13.8101 7.91016 14.7301 7.91016C15.6501 7.91016 16.4001 8.66016 16.4001 9.58016V10.4402" stroke="#FF2D20" stroke-width="2" stroke-linecap="round" stroke-linejoin="round"/>
<path d="M11.13 15.4102H8.26001" stroke="#FF2D20" stroke-width="2" stroke-linecap="round" stroke-linejoin="round"/>
<path d="M11.52 18.0195L9.94995 19.5795" stroke="#FF2D20" stroke-width="2" stroke-linecap="round" stroke-linejoin="round"/>
<path d="M11.52 12.7905L9.94995 11.2305" stroke="#FF2D20" stroke-width="2" stroke-linecap="round" stroke-linejoin="round"/>
<path d="M18.3401 15.4102H21.2001" stroke="#FF2D20" stroke-width="2" stroke-linecap="round" stroke-linejoin="round"/>
<path d="M17.95 18.0195L19.51 19.5795" stroke="#FF2D20" stroke-width="2" stroke-linecap="round" stroke-linejoin="round"/>
<path d="M11.1201 16.39C11.1201 18.3837 12.7341 20 14.7251 20C16.7161 20 18.3301 18.3837 18.3301 16.39V14.42C18.3301 12.4263 16.7161 10.81 14.7251 10.81C12.7341 10.81 11.1201 12.4263 11.1201 14.42V16.39Z" stroke="#FF2D20" stroke-width="2" stroke-linecap="round" stroke-linejoin="round"/>
<path d="M17.95 12.7905L19.51 11.2305" stroke="#FF2D20" stroke-width="2" stroke-linecap="round" stroke-linejoin="round"/>
<path d="M18.3301 16.6484H16.0601" stroke="#FF2D20" stroke-width="2" stroke-linecap="round" stroke-linejoin="round"/>
<path d="M18.11 14.0898H16.7" stroke="#FF2D20" stroke-width="2" stroke-linecap="round" stroke-linejoin="round"/>
<path d="M26.1801 20.7305H25.8101" stroke="#FF2D20" stroke-width="2" stroke-linecap="round" stroke-linejoin="round"/>
<path d="M27.8399 17.2188H27.1799" stroke="#FF2D20" stroke-width="2" stroke-linecap="round" stroke-linejoin="round"/>
<path d="M28.41 13.5117H27.01" stroke="#FF2D20" stroke-width="2" stroke-linecap="round" stroke-linejoin="round"/>
</g>
<defs>
<clipPath id="clip0_834_1189">
<rect width="40" height="40" fill="white"/>
</clipPath>
</defs>
</svg>
